docs/images/use/!.svg

<svg width="17" height="50" viewBox="0 0 17 50" fill="none" xmlns="http://www.w3.org/2000/svg">
<path d="M8.44967 34.3486H3.94984L0 0H8.44967H16.8993L12.9995 34.3486H8.44967Z" fill="white"/>
<path d="M8.49937 37.6504C10.2493 37.6504 11.6992 38.2004 12.8992 39.3503C14.0491 40.5003 14.6491 42.0002 14.6491 43.8001C14.6491 45.6001 14.0491 47.15 12.8992 48.3C11.7492 49.4499 10.2993 49.9999 8.49937 49.9999C6.69944 49.9999 5.29949 49.3999 4.09954 48.25C2.89959 47.05 2.34961 45.6001 2.34961 43.8501C2.34961 42.1002 2.94959 40.5003 4.09954 39.4003C5.29949 38.2504 6.74944 37.7004 8.49937 37.7004V37.6504Z" fill="white"/>
</svg>

<svg xmlns="http://www.w3.org/2000/svg" width="17" height="50" fill="none"><path fill="#fff" d="M8.45 34.349h-4.5L0 0h16.9L13 34.349zm.05 3.301c1.75 0 3.2.55 4.4 1.7 1.15 1.15 1.75 2.65 1.75 4.45s-.6 3.35-1.75 4.5S10.3 50 8.5 50s-3.2-.6-4.4-1.75c-1.2-1.2-1.75-2.65-1.75-4.4s.6-3.35 1.75-4.45c1.2-1.15 2.65-1.7 4.4-1.7z"/></svg>
